fs/folder_sync_20_filled.svg

<svg viewBox="0 0 20 20" fill="none" xmlns="http://www.w3.org/2000/svg" height="1em" width="1em">
  <path d="M9.38572 4.28908L8.06667 3.3C7.80702 3.10527 7.49122 3 7.16667 3H4.5C3.11929 3 2 4.11929 2 5.5V6.5H7.07069C7.20774 6.5 7.33879 6.44374 7.43319 6.34437L9.38572 4.28908ZM10.5647 4.5L8.15819 7.03312C7.875 7.33122 7.48186 7.5 7.07069 7.5H2V14.5C2 15.8807 3.11929 17 4.5 17H9.59971C9.21628 16.2499 9 15.4002 9 14.5C9 11.4624 11.4624 9 14.5 9C15.8296 9 17.0491 9.47182 18 10.2572V7L17.9947 6.83562C17.91 5.53154 16.8255 4.5 15.5 4.5H10.5647ZM14.5 19C12.0147 19 10 16.9853 10 14.5C10 12.0147 12.0147 10 14.5 10C16.9853 10 19 12.0147 19 14.5C19 16.9853 16.9853 19 14.5 19ZM16 12V12.1519C15.9095 12.0997 15.8162 12.0521 15.7203 12.0094C15.3524 11.8456 14.9552 11.7575 14.5524 11.7505C14.1497 11.7434 13.7497 11.8175 13.3762 11.9684C13.0027 12.1193 12.6635 12.3439 12.3786 12.6287C12.1834 12.8239 12.1834 13.1405 12.3786 13.3358C12.5739 13.531 12.8905 13.531 13.0857 13.3358C13.2756 13.1459 13.5018 12.9962 13.7508 12.8956C13.9998 12.795 14.2665 12.7456 14.535 12.7503C14.8034 12.755 15.0682 12.8137 15.3135 12.923C15.3663 12.9464 15.4179 12.9722 15.4682 13H15C14.7239 13 14.5 13.2239 14.5 13.5C14.5 13.7761 14.7239 14 15 14H16.5C16.7761 14 17 13.7761 17 13.5V12C17 11.7239 16.7761 11.5 16.5 11.5C16.2239 11.5 16 11.7239 16 12ZM14.4476 17.2495C14.8503 17.2566 15.2503 17.1825 15.6238 17.0316C15.9973 16.8807 16.3365 16.6561 16.6214 16.3713C16.8166 16.1761 16.8166 15.8595 16.6214 15.6642C16.4261 15.469 16.1095 15.469 15.9143 15.6642C15.7244 15.8541 15.4982 16.0038 15.2492 16.1044C15.0002 16.205 14.7335 16.2544 14.465 16.2497C14.1966 16.245 13.9318 16.1863 13.6865 16.077C13.6337 16.0536 13.5821 16.0278 13.5318 16H14C14.2761 16 14.5 15.7761 14.5 15.5C14.5 15.2239 14.2761 15 14 15H12.5C12.2239 15 12 15.2239 12 15.5V17C12 17.2761 12.2239 17.5 12.5 17.5C12.7761 17.5 13 17.2761 13 17V16.8481C13.0905 16.9003 13.1838 16.9479 13.2797 16.9906C13.6476 17.1544 14.0448 17.2425 14.4476 17.2495Z" fill="#212121"/>
</svg>

<svg viewBox="0 0 20 20" fill="none" xmlns="http://www.w3.org/2000/svg" height="1em" width="1em">
  <path d="m9.386 4.29-1.32-.99a1.5 1.5 0 0 0-.9-.3H4.5A2.5 2.5 0 0 0 2 5.5v1h5.07a.5.5 0 0 0 .363-.156L9.386 4.29Zm1.179.21L8.158 7.033a1.5 1.5 0 0 1-1.087.467H2v7A2.5 2.5 0 0 0 4.5 17h5.1a5.5 5.5 0 0 1 8.4-6.743V7l-.005-.164A2.5 2.5 0 0 0 15.5 4.5h-4.935ZM14.5 19a4.5 4.5 0 1 1 0-9 4.5 4.5 0 0 1 0 9Zm1.5-7v.152a3.011 3.011 0 0 0-1.448-.401 2.999 2.999 0 0 0-2.173.878.5.5 0 0 0 .707.707A2 2 0 0 1 15.468 13H15a.5.5 0 0 0 0 1h1.5a.5.5 0 0 0 .5-.5V12a.5.5 0 0 0-1 0Zm-1.552 5.25a2.999 2.999 0 0 0 2.173-.879.5.5 0 0 0-.707-.707 2 2 0 0 1-2.382.336H14a.5.5 0 0 0 0-1h-1.5a.5.5 0 0 0-.5.5V17a.5.5 0 0 0 1 0v-.152a3.011 3.011 0 0 0 1.448.402Z" fill="#212121"/>
</svg>
